X:1
T:Galen's Arrival
C:Alasdair Fraser
R:Reel
M:C|
K:G
"G"GA|B3 A BGdB|"Am"c3B cAec|"G"Bdgd "C"ecAG|"D"FGAB cDBA|
"G"B3A BGdB|"Am"c3B cAec|"G"Bdgd "D"ecAF|1"G"G2GF G2:|2"G"G2GF GABd||
|:"Em"g2 gf gbag|"D"f2fe fddB|"Am"c2 cB cedc|"G"Bdgd "D"fgaf|
"Em"g2 gf gbag|"D"f2fe fddB|"C"c2 cB cedc|1 "G"BGAF GABd:|2 "G"BGAF G2|]
